img/icon/promo.svg

<svg width="26" height="26" viewBox="0 0 26 26" fill="none" xmlns="http://www.w3.org/2000/svg">
<path d="M9.40022 16.5998L16.5999 9.40008M13.51 2.13798L16.7763 1.08083C17.5491 0.830037 18.389 1.17922 18.7586 1.90159L20.3198 4.95907C20.4782 5.26865 20.7301 5.52184 21.0409 5.68024L24.06 7.22217C24.8052 7.60256 25.164 8.46892 24.906 9.26569L23.862 12.4912C23.7552 12.8223 23.7552 13.1787 23.862 13.5099L24.9192 16.7762C25.17 17.5489 24.8208 18.3889 24.0984 18.7585L21.0409 20.3196C20.7313 20.478 20.4782 20.73 20.3198 21.0408L18.7574 24.0983C18.3878 24.8218 17.5479 25.1698 16.7751 24.919L13.5088 23.8619C13.1777 23.7551 12.8213 23.7551 12.4901 23.8619L9.22382 24.919C8.45105 25.1698 7.61109 24.8206 7.2415 24.0983L5.68037 21.0408C5.52198 20.7312 5.26999 20.478 4.9592 20.3196L1.90173 18.7573C1.17816 18.3877 0.830171 17.5477 1.08096 16.775L2.13812 13.5087C2.24491 13.1775 2.24491 12.8211 2.13812 12.49L1.08096 9.22489C0.831371 8.45212 1.17936 7.61096 1.90293 7.24137L4.9592 5.68024C5.26999 5.52184 5.52198 5.26985 5.68037 4.95907L7.2427 1.90159C7.61109 1.17922 8.45225 0.831237 9.22502 1.08083L12.4913 2.13798C12.8213 2.24598 13.1789 2.24598 13.51 2.13798ZM9.699 9.40008C9.53341 9.40008 9.39902 9.53448 9.40022 9.70007C9.40022 9.86566 9.53461 10.0001 9.7002 10.0001C9.8658 10.0001 10.0002 9.86566 10.0002 9.70007C10.0002 9.53448 9.8658 9.40008 9.699 9.40008ZM16.2987 15.9998C16.1331 15.9998 15.9987 16.1342 15.9999 16.2998C15.9999 16.4654 16.1343 16.5998 16.2999 16.5998C16.4655 16.5998 16.5999 16.4654 16.5999 16.2998C16.5999 16.1342 16.4655 15.9998 16.2987 15.9998Z" stroke="#848E9F" stroke-width="1.5" stroke-linecap="round" stroke-linejoin="round"/>
</svg>

<svg width="26" height="26" fill="none" xmlns="http://www.w3.org/2000/svg"><path d="M9.4 16.6l7.2-7.2m-3.09-7.262l3.266-1.057a1.654 1.654 0 0 1 1.983.82l1.56 3.058c.16.31.411.563.722.721l3.019 1.542a1.705 1.705 0 0 1 .846 2.044l-1.044 3.225a1.66 1.66 0 0 0 0 1.019l1.057 3.266a1.654 1.654 0 0 1-.82 1.983l-3.058 1.56c-.31.159-.563.411-.721.722l-1.563 3.057a1.653 1.653 0 0 1-1.982.821l-3.266-1.057a1.66 1.66 0 0 0-1.019 0l-3.266 1.057a1.654 1.654 0 0 1-1.982-.82L5.68 21.04a1.655 1.655 0 0 0-.72-.721l-3.058-1.563a1.653 1.653 0 0 1-.821-1.982l1.057-3.266a1.66 1.66 0 0 0 0-1.019L1.081 9.225a1.656 1.656 0 0 1 .822-1.984l3.056-1.56c.311-.16.563-.411.721-.722l1.563-3.057a1.655 1.655 0 0 1 1.982-.821l3.266 1.057c.33.108.688.108 1.019 0zM9.699 9.4a.3.3 0 1 0 .301.3.3.3 0 0 0-.301-.3zm6.6 6.6a.3.3 0 1 0 .301.3.3.3 0 0 0-.301-.3z" stroke="#848E9F" stroke-width="1.5" stroke-linecap="round" stroke-linejoin="round"/></svg>
